packages/dnb-eufemia/assets/icons/volume_on_medium.svg

<svg width="24" height="24" viewBox="0 0 24 24" fill="none" xmlns="http://www.w3.org/2000/svg">
<path d="M6 9.00008L12.6 4.80008C13.0457 4.46561 13.6726 4.40895 14.171 4.65808C14.6694 4.90734 15.0002 5.44286 15 6.00008V18.0001C15 18.5572 14.6691 19.0926 14.1708 19.3417C13.6725 19.5909 13.0457 19.5344 12.6 19.2001L6 15.0001M6 9.00008H3C2.183 9.00008 1.5 9.68308 1.5 10.5001V13.5001C1.5 14.3171 2.183 15.0001 3 15.0001H6M6 9.00008V15.0001M21.463 15.7501C22.8302 13.6072 22.8302 10.793 21.463 8.65008M18.562 14.4411C19.5919 13.1734 19.5919 11.3038 18.562 10.0361" stroke="black" stroke-width="1.5" stroke-linecap="round" stroke-linejoin="round"/>
</svg>

<svg width="24" height="24" viewBox="0 0 24 24" fill="none" xmlns="http://www.w3.org/2000/svg"><path d="m6 9 6.6-4.2a1.525 1.525 0 0 1 1.571-.142c.498.25.83.785.829 1.342v12c0 .557-.33 1.093-.83 1.342a1.525 1.525 0 0 1-1.57-.142L6 15m0-6H3c-.817 0-1.5.683-1.5 1.5v3c0 .817.683 1.5 1.5 1.5h3m0-6v6m15.463.75a6.658 6.658 0 0 0 0-7.1m-2.901 5.791a3.526 3.526 0 0 0 0-4.405" stroke="#000" stroke-width="1.5" stroke-linecap="round" stroke-linejoin="round"/></svg>
